src/actions/16/circular-arrow-shape.svg

<svg xmlns="http://www.w3.org/2000/svg" viewBox="0 0 16 16">
  <defs id="defs3051">
    <style type="text/css" id="current-color-scheme">
      .ColorScheme-Text {
        color:#2e3440;
      }
      </style>
  </defs>
 <path style="fill:currentColor;fill-opacity:1;stroke:none" 
     d="M 6.5 3 C 4.014748 3 2 5.0147171 2 7.5 L 2 8 L 2 9 L 3 9 L 3 8 L 3 7.5 C 3 5.5670021 4.566998 4 6.5 4 C 8.4330016 4 10 5.5670021 10 7.5 L 10 8 L 10 8.8125 L 10 10 L 10 11.09375 L 7.71875 8.78125 L 7 9.5 L 10.28125 12.78125 L 10.5 13 L 10.71875 12.78125 L 14 9.5 L 13.28125 8.78125 L 11 11.09375 L 11 10 L 11 8.8125 L 11 8 L 11 7.5 C 11 5.0147171 8.9852521 3 6.5 3 z "
     class="ColorScheme-Text"
     />
</svg>

<svg viewBox="0 0 16 16" xmlns="http://www.w3.org/2000/svg">
 <defs>
  <style type="text/css">.ColorScheme-Text {
        color:#2e3440;
      }</style>
 </defs>
 <path class="ColorScheme-Text" d="m6.5 3c-2.4853 0-4.5 2.0147-4.5 4.5v0.5 1h1v-1-0.5c0-1.933 1.567-3.5 3.5-3.5 1.933 0 3.5 1.567 3.5 3.5v0.5 0.8125 1.1875 1.0938l-2.2812-2.3125-0.71875 0.71875 3.5 3.5 3.5-3.5-0.71875-0.71875-2.2812 2.3125v-1.0938-1.1875-0.8125-0.5c0-2.4853-2.0147-4.5-4.5-4.5z" fill="currentColor"/>
</svg>
